icons/schema-16.svg

<?xml version="1.0" encoding="UTF-8"?><svg id="icons" xmlns="http://www.w3.org/2000/svg" viewBox="0 0 16 16"><defs><style>.cls-1{fill:none;}.cls-1,.cls-2{stroke-width:0px;}</style></defs><rect class="cls-1" width="16" height="16"/><path class="cls-2" d="M15,13v-3h-6v-3h4V0H4v7h4v3H2v3h-1v3h3v-3h-1v-2h5v2h-1v3h3v-3h-1v-2h5v2h-1v3h3v-3h-1ZM3,15h-1v-1h1v1ZM9,15h-1v-1h1v1ZM5,6V1h7v5h-7ZM15,15h-1v-1h1v1ZM6,2h5v1h-5v-1ZM6,4h5v1h-5v-1Z"/></svg>

<svg xmlns="http://www.w3.org/2000/svg" viewBox="0 0 16 16"><path stroke-width="0" fill="none" d="M0 0h16v16H0z"/><path d="M15 13v-3H9V7h4V0H4v7h4v3H2v3H1v3h3v-3H3v-2h5v2H7v3h3v-3H9v-2h5v2h-1v3h3v-3h-1zM3 15H2v-1h1v1zm6 0H8v-1h1v1zM5 6V1h7v5H5zm10 9h-1v-1h1v1zM6 2h5v1H6V2zm0 2h5v1H6V4z" stroke-width="0"/></svg>
